Numix-Circle/48x48/apps/hedgewars.svg

<?xml version="1.0" encoding="UTF-8" standalone="no"?>
<svg
   xmlns:dc="http://purl.org/dc/elements/1.1/"
   xmlns:cc="http://creativecommons.org/ns#"
   xmlns:rdf="http://www.w3.org/1999/02/22-rdf-syntax-ns#"
   xmlns:svg="http://www.w3.org/2000/svg"
   xmlns="http://www.w3.org/2000/svg"
   xmlns:sodipodi="http://sodipodi.sourceforge.net/DTD/sodipodi-0.dtd"
   xmlns:inkscape="http://www.inkscape.org/namespaces/inkscape"
   viewBox="0 0 48 48"
   id="svg14100"
   version="1.1"
   inkscape:version="0.48.5 r10040"
   width="100%"
   height="100%"
   sodipodi:docname="paraview.svg">
  <metadata
     id="metadata14159">
    <rdf:RDF>
      <cc:Work
         rdf:about="">
        <dc:format>image/svg+xml</dc:format>
        <dc:type
           rdf:resource="http://purl.org/dc/dcmitype/StillImage" />
        <dc:title></dc:title>
      </cc:Work>
    </rdf:RDF>
  </metadata>
  <sodipodi:namedview
     pagecolor="#ffffff"
     bordercolor="#666666"
     borderopacity="1"
     objecttolerance="10"
     gridtolerance="10"
     guidetolerance="10"
     inkscape:pageopacity="0"
     inkscape:pageshadow="2"
     inkscape:window-width="1366"
     inkscape:window-height="737"
     id="namedview14157"
     showgrid="false"
     inkscape:zoom="1"
     inkscape:cx="24"
     inkscape:cy="24"
     inkscape:window-x="0"
     inkscape:window-y="0"
     inkscape:window-maximized="1"
     inkscape:current-layer="svg14100" />
  <defs
     id="defs14102">
    <linearGradient
       id="linearGradient3764"
       x1="1"
       x2="47"
       gradientUnits="userSpaceOnUse"
       gradientTransform="matrix(0,-1,1,0,-1.5e-6,47.999998)">
      <stop
         stop-color="#b93b3b"
         stop-opacity="1"
         id="stop14105" />
      <stop
         offset="1"
         stop-color="#c34545"
         stop-opacity="1"
         id="stop14107" />
    </linearGradient>
    <clipPath
       id="clipPath-887079119">
      <g
         transform="translate(0,-1004.3622)"
         id="g14110">
        <path
           d="m -24 13 c 0 1.105 -0.672 2 -1.5 2 -0.828 0 -1.5 -0.895 -1.5 -2 0 -1.105 0.672 -2 1.5 -2 0.828 0 1.5 0.895 1.5 2 z"
           transform="matrix(15.333333,0,0,11.5,414.99999,878.8622)"
           fill="#1890d0"
           id="path14112" />
      </g>
    </clipPath>
    <clipPath
       id="clipPath-898578971">
      <g
         transform="translate(0,-1004.3622)"
         id="g14115">
        <path
           d="m -24 13 c 0 1.105 -0.672 2 -1.5 2 -0.828 0 -1.5 -0.895 -1.5 -2 0 -1.105 0.672 -2 1.5 -2 0.828 0 1.5 0.895 1.5 2 z"
           transform="matrix(15.333333,0,0,11.5,414.99999,878.8622)"
           fill="#1890d0"
           id="path14117" />
      </g>
    </clipPath>
  </defs>
  <g
     id="g14119">
    <path
       d="m 36.31 5 c 5.859 4.062 9.688 10.831 9.688 18.5 c 0 12.426 -10.07 22.5 -22.5 22.5 c -7.669 0 -14.438 -3.828 -18.5 -9.688 c 1.037 1.822 2.306 3.499 3.781 4.969 c 4.085 3.712 9.514 5.969 15.469 5.969 c 12.703 0 23 -10.298 23 -23 c 0 -5.954 -2.256 -11.384 -5.969 -15.469 c -1.469 -1.475 -3.147 -2.744 -4.969 -3.781 z m 4.969 3.781 c 3.854 4.113 6.219 9.637 6.219 15.719 c 0 12.703 -10.297 23 -23 23 c -6.081 0 -11.606 -2.364 -15.719 -6.219 c 4.16 4.144 9.883 6.719 16.219 6.719 c 12.703 0 23 -10.298 23 -23 c 0 -6.335 -2.575 -12.06 -6.719 -16.219 z"
       opacity="0.05"
       id="path14121" />
    <path
       d="m 41.28 8.781 c 3.712 4.085 5.969 9.514 5.969 15.469 c 0 12.703 -10.297 23 -23 23 c -5.954 0 -11.384 -2.256 -15.469 -5.969 c 4.113 3.854 9.637 6.219 15.719 6.219 c 12.703 0 23 -10.298 23 -23 c 0 -6.081 -2.364 -11.606 -6.219 -15.719 z"
       opacity="0.1"
       id="path14123" />
    <path
       d="m 31.25 2.375 c 8.615 3.154 14.75 11.417 14.75 21.13 c 0 12.426 -10.07 22.5 -22.5 22.5 c -9.708 0 -17.971 -6.135 -21.12 -14.75 a 23 23 0 0 0 44.875 -7 a 23 23 0 0 0 -16 -21.875 z"
       opacity="0.2"
       id="path14125" />
  </g>
  <g
     id="g14127"
     style="fill:#5f8dd3">
    <path
       d="m 24 1 c 12.703 0 23 10.297 23 23 c 0 12.703 -10.297 23 -23 23 -12.703 0 -23 -10.297 -23 -23 0 -12.703 10.297 -23 23 -23 z"
       id="path14129"
       style="fill:#5f8dd3"
       fill-opacity="1"
       fill="url(#linearGradient3764)" />
  </g>
  <g
     id="g14131" />
  <g
     id="g14153">
    <path
       d="m 40.03 7.531 c 3.712 4.084 5.969 9.514 5.969 15.469 0 12.703 -10.297 23 -23 23 c -5.954 0 -11.384 -2.256 -15.469 -5.969 4.178 4.291 10.01 6.969 16.469 6.969 c 12.703 0 23 -10.298 23 -23 0 -6.462 -2.677 -12.291 -6.969 -16.469 z"
       opacity="0.1"
       id="path14155" />
  </g>
  <path
     id="path3063"
     d="m 17.366973,9.0000001 3.01966,7.3204009 c -0.02505,0.01835 -0.05898,0.02427 -0.08388,0.04281 l -9.184797,0.470903 5.053735,4.901672 L 9,24.325753 l 6.458715,2.739799 -5.5360413,3.039465 6.5425953,0.813378 c 0.08945,0.201676 0.193646,0.403578 0.293578,0.599331 -0.948604,0.563066 -1.59371,1.589327 -1.59371,2.761204 0,1.77795 1.469402,3.210702 3.271298,3.210702 1.054749,0 1.982886,-0.496732 2.579292,-1.262876 0.13894,0.08917 0.276633,0.173315 0.419398,0.256856 -0.103151,0.331551 -0.167759,0.682415 -0.167759,1.048829 0,1.915896 1.520142,3.467559 3.397116,3.467559 1.19613,0 2.22526,-0.630535 2.830931,-1.583946 C 28.100238,40.37413 29.147696,41 30.347313,41 c 1.876975,0 3.397117,-1.551663 3.397117,-3.467559 0,-0.358131 -0.04807,-0.702418 -0.146789,-1.027424 2.160567,-1.253667 3.89927,-3.15579 4.948886,-5.43679 0.112222,0.01993 0.218104,0.04281 0.335518,0.04281 1.171231,0 2.117955,-1.039551 2.117955,-2.311706 0,-0.97935 -0.569649,-1.80724 -1.363041,-2.140468 0.01045,-0.205746 0.02097,-0.412426 0.02097,-0.620736 0,-5.693528 -3.949301,-10.452233 -9.268676,-11.729766 L 17.366973,9.0000001 z"
     style="opacity:0.1;fill:#000000;stroke:none"
     inkscape:connector-curvature="0" />
  <path
     style="fill:#ff55dd;stroke:none"
     d="m 16.366973,8.0000001 3.01966,7.3204009 c -0.02505,0.01835 -0.05898,0.02427 -0.08388,0.04281 l -9.184797,0.470903 5.053735,4.901672 L 8,23.325753 l 6.458715,2.739799 -5.5360413,3.039465 6.5425953,0.813378 c 0.08945,0.201676 0.193646,0.403578 0.293578,0.599331 -0.948604,0.563066 -1.59371,1.589327 -1.59371,2.761204 0,1.77795 1.469402,3.210702 3.271298,3.210702 1.054749,0 1.982886,-0.496732 2.579292,-1.262876 0.13894,0.08917 0.276633,0.173315 0.419398,0.256856 -0.103151,0.331551 -0.167759,0.682415 -0.167759,1.048829 0,1.915896 1.520142,3.467559 3.397116,3.467559 1.19613,0 2.22526,-0.630535 2.830931,-1.583946 C 27.100238,39.37413 28.147696,40 29.347313,40 c 1.876975,0 3.397117,-1.551663 3.397117,-3.467559 0,-0.358131 -0.04807,-0.702418 -0.146789,-1.027424 2.160567,-1.253667 3.89927,-3.15579 4.948886,-5.43679 0.112222,0.01993 0.218104,0.04281 0.335518,0.04281 1.171231,0 2.117955,-1.039551 2.117955,-2.311706 0,-0.97935 -0.569649,-1.80724 -1.363041,-2.140468 0.01045,-0.205746 0.02097,-0.412426 0.02097,-0.620736 0,-5.693528 -3.949301,-10.452233 -9.268676,-11.729766 L 16.366973,8.0000001 z"
     id="path3015" />
</svg>

<?xml version="1.0" encoding="UTF-8" standalone="no"?>
<svg
   xmlns:dc="http://purl.org/dc/elements/1.1/"
   xmlns:cc="http://creativecommons.org/ns#"
   xmlns:rdf="http://www.w3.org/1999/02/22-rdf-syntax-ns#"
   xmlns:svg="http://www.w3.org/2000/svg"
   xmlns="http://www.w3.org/2000/svg"
   xmlns:sodipodi="http://sodipodi.sourceforge.net/DTD/sodipodi-0.dtd"
   xmlns:inkscape="http://www.inkscape.org/namespaces/inkscape"
   viewBox="0 0 48 48"
   id="svg14100"
   version="1.1"
   inkscape:version="0.48.5 r10040"
   width="100%"
   height="100%"
   sodipodi:docname="hedgewars.svg">
  <metadata
     id="metadata14159">
    <rdf:RDF>
      <cc:Work
         rdf:about="">
        <dc:format>image/svg+xml</dc:format>
        <dc:type
           rdf:resource="http://purl.org/dc/dcmitype/StillImage" />
        <dc:title />
      </cc:Work>
    </rdf:RDF>
  </metadata>
  <sodipodi:namedview
     pagecolor="#ffffff"
     bordercolor="#666666"
     borderopacity="1"
     objecttolerance="10"
     gridtolerance="10"
     guidetolerance="10"
     inkscape:pageopacity="0"
     inkscape:pageshadow="2"
     inkscape:window-width="1366"
     inkscape:window-height="737"
     id="namedview14157"
     showgrid="false"
     inkscape:zoom="5"
     inkscape:cx="24"
     inkscape:cy="24"
     inkscape:window-x="0"
     inkscape:window-y="0"
     inkscape:window-maximized="1"
     inkscape:current-layer="svg14100" />
  <defs
     id="defs14102">
    <linearGradient
       id="linearGradient3764"
       x1="1"
       x2="47"
       gradientUnits="userSpaceOnUse"
       gradientTransform="matrix(0,-1,1,0,-1.5e-6,47.999998)">
      <stop
         stop-color="#b93b3b"
         stop-opacity="1"
         id="stop14105" />
      <stop
         offset="1"
         stop-color="#c34545"
         stop-opacity="1"
         id="stop14107" />
    </linearGradient>
    <clipPath
       id="clipPath-887079119">
      <g
         transform="translate(0,-1004.3622)"
         id="g14110">
        <path
           d="m -24 13 c 0 1.105 -0.672 2 -1.5 2 -0.828 0 -1.5 -0.895 -1.5 -2 0 -1.105 0.672 -2 1.5 -2 0.828 0 1.5 0.895 1.5 2 z"
           transform="matrix(15.333333,0,0,11.5,414.99999,878.8622)"
           fill="#1890d0"
           id="path14112" />
      </g>
    </clipPath>
    <clipPath
       id="clipPath-898578971">
      <g
         transform="translate(0,-1004.3622)"
         id="g14115">
        <path
           d="m -24 13 c 0 1.105 -0.672 2 -1.5 2 -0.828 0 -1.5 -0.895 -1.5 -2 0 -1.105 0.672 -2 1.5 -2 0.828 0 1.5 0.895 1.5 2 z"
           transform="matrix(15.333333,0,0,11.5,414.99999,878.8622)"
           fill="#1890d0"
           id="path14117" />
      </g>
    </clipPath>
  </defs>
  <g
     id="g14119">
    <path
       d="m 36.31 5 c 5.859 4.062 9.688 10.831 9.688 18.5 c 0 12.426 -10.07 22.5 -22.5 22.5 c -7.669 0 -14.438 -3.828 -18.5 -9.688 c 1.037 1.822 2.306 3.499 3.781 4.969 c 4.085 3.712 9.514 5.969 15.469 5.969 c 12.703 0 23 -10.298 23 -23 c 0 -5.954 -2.256 -11.384 -5.969 -15.469 c -1.469 -1.475 -3.147 -2.744 -4.969 -3.781 z m 4.969 3.781 c 3.854 4.113 6.219 9.637 6.219 15.719 c 0 12.703 -10.297 23 -23 23 c -6.081 0 -11.606 -2.364 -15.719 -6.219 c 4.16 4.144 9.883 6.719 16.219 6.719 c 12.703 0 23 -10.298 23 -23 c 0 -6.335 -2.575 -12.06 -6.719 -16.219 z"
       opacity="0.05"
       id="path14121" />
    <path
       d="m 41.28 8.781 c 3.712 4.085 5.969 9.514 5.969 15.469 c 0 12.703 -10.297 23 -23 23 c -5.954 0 -11.384 -2.256 -15.469 -5.969 c 4.113 3.854 9.637 6.219 15.719 6.219 c 12.703 0 23 -10.298 23 -23 c 0 -6.081 -2.364 -11.606 -6.219 -15.719 z"
       opacity="0.1"
       id="path14123" />
    <path
       d="m 31.25 2.375 c 8.615 3.154 14.75 11.417 14.75 21.13 c 0 12.426 -10.07 22.5 -22.5 22.5 c -9.708 0 -17.971 -6.135 -21.12 -14.75 a 23 23 0 0 0 44.875 -7 a 23 23 0 0 0 -16 -21.875 z"
       opacity="0.2"
       id="path14125" />
  </g>
  <g
     id="g14127"
     style="fill:#5f8dd3">
    <path
       d="m 24 1 c 12.703 0 23 10.297 23 23 c 0 12.703 -10.297 23 -23 23 -12.703 0 -23 -10.297 -23 -23 0 -12.703 10.297 -23 23 -23 z"
       id="path14129"
       style="fill:#5f8dd3"
       fill-opacity="1"
       fill="url(#linearGradient3764)" />
  </g>
  <g
     id="g14131" />
  <g
     id="g14153">
    <path
       d="m 40.03 7.531 c 3.712 4.084 5.969 9.514 5.969 15.469 0 12.703 -10.297 23 -23 23 c -5.954 0 -11.384 -2.256 -15.469 -5.969 4.178 4.291 10.01 6.969 16.469 6.969 c 12.703 0 23 -10.298 23 -23 0 -6.462 -2.677 -12.291 -6.969 -16.469 z"
       opacity="0.1"
       id="path14155" />
  </g>
  <path
     id="path3016"
     d="m 17.375,9 3,7.3125 c -0.02505,0.01835 -0.0376,0.04396 -0.0625,0.0625 L 11.125,16.84375 16.15625,21.75 9,24.3125 l 6.46875,2.75 -5.53125,3.03125 6.53125,0.8125 c 0.08945,0.201676 0.181318,0.429247 0.28125,0.625 -0.948604,0.563066 -1.59375,1.578123 -1.59375,2.75 0,1.77795 1.479354,3.21875 3.28125,3.21875 1.054749,0 1.997344,-0.515106 2.59375,-1.28125 0.13894,0.08917 0.263485,0.166459 0.40625,0.25 -0.103151,0.331551 -0.15625,0.696086 -0.15625,1.0625 0,1.915896 1.498026,3.46875 3.375,3.46875 C 25.85238,41 26.894329,40.359661 27.5,39.40625 28.104825,40.364326 29.144133,41 30.34375,41 32.220725,41 33.75,39.447146 33.75,37.53125 c 0,-0.358131 -0.05753,-0.706244 -0.15625,-1.03125 2.160567,-1.253667 3.887884,-3.1565 4.9375,-5.4375 0.112222,0.01993 0.226336,0.0625 0.34375,0.0625 1.171231,0 2.125,-1.040345 2.125,-2.3125 0,-0.97935 -0.581608,-1.823022 -1.375,-2.15625 0.01045,-0.205746 0.03125,-0.41669 0.03125,-0.625 0,-5.693528 -3.961875,-10.441217 -9.28125,-11.71875 L 17.375,9 z m 13.84375,11.9375 c 0.933441,0 1.77097,0.379016 2.375,1.03125 0.364793,-0.204971 0.774415,-0.34375 1.21875,-0.34375 1.42187,0 2.59375,1.185564 2.59375,2.65625 0,1.470686 -1.17188,2.6875 -2.59375,2.6875 -0.395116,0 -0.759169,-0.116731 -1.09375,-0.28125 -0.609968,0.74929 -1.489358,1.25 -2.5,1.25 -1.836803,0 -3.3125,-1.565566 -3.3125,-3.5 0,-1.934434 1.475697,-3.5 3.3125,-3.5 z"
     style="opacity:0.1;fill:#000000;stroke:none"
     inkscape:connector-curvature="0" />
  <path
     style="fill:#ff55dd;stroke:none"
     d="M 16.375 8 L 19.375 15.3125 C 19.34995 15.33085 19.3374 15.35646 19.3125 15.375 L 10.125 15.84375 L 15.15625 20.75 L 8 23.3125 L 14.46875 26.0625 L 8.9375 29.09375 L 15.46875 29.90625 C 15.5582 30.107926 15.650068 30.335497 15.75 30.53125 C 14.801396 31.094316 14.15625 32.109373 14.15625 33.28125 C 14.15625 35.0592 15.635604 36.5 17.4375 36.5 C 18.492249 36.5 19.434844 35.984894 20.03125 35.21875 C 20.17019 35.30792 20.294735 35.385209 20.4375 35.46875 C 20.334349 35.800301 20.28125 36.164836 20.28125 36.53125 C 20.28125 38.447146 21.779276 40 23.65625 40 C 24.85238 40 25.894329 39.359661 26.5 38.40625 C 27.104825 39.364326 28.144133 40 29.34375 40 C 31.220725 40 32.75 38.447146 32.75 36.53125 C 32.75 36.173119 32.692469 35.825006 32.59375 35.5 C 34.754317 34.246333 36.481634 32.3435 37.53125 30.0625 C 37.643472 30.08243 37.757586 30.125 37.875 30.125 C 39.046231 30.125 40 29.084655 40 27.8125 C 40 26.83315 39.418392 25.989478 38.625 25.65625 C 38.63545 25.450504 38.65625 25.23956 38.65625 25.03125 C 38.65625 19.337722 34.694375 14.590033 29.375 13.3125 L 16.375 8 z M 30.21875 19.9375 C 31.152191 19.9375 31.98972 20.316516 32.59375 20.96875 C 32.958543 20.763779 33.368165 20.625 33.8125 20.625 C 35.23437 20.625 36.40625 21.810564 36.40625 23.28125 C 36.40625 24.751936 35.23437 25.96875 33.8125 25.96875 C 33.417384 25.96875 33.053331 25.852019 32.71875 25.6875 C 32.108782 26.43679 31.229392 26.9375 30.21875 26.9375 C 28.381947 26.9375 26.90625 25.371934 26.90625 23.4375 C 26.90625 21.503066 28.381947 19.9375 30.21875 19.9375 z "
     id="path3015" />
</svg>
